dist/static/img/support/02.svg

<svg width="48" height="48" viewBox="0 0 48 48" fill="none" xmlns="http://www.w3.org/2000/svg">
<g clip-path="url(#clip0_1042_2932)">
<path d="M44.1488 3.49219H38.0137C37.6254 3.49219 37.3105 3.807 37.3105 4.19531C37.3105 4.58363 37.6254 4.89844 38.0137 4.89844H44.1488C44.5371 4.89844 44.8519 4.58363 44.8519 4.19531C44.8519 3.807 44.5372 3.49219 44.1488 3.49219Z" fill="#1F5AFF"/>
<path d="M34.5293 4.89844H35.2771C35.6655 4.89844 35.9803 4.58363 35.9803 4.19531C35.9803 3.807 35.6655 3.49219 35.2771 3.49219H34.5293C34.141 3.49219 33.8262 3.807 33.8262 4.19531C33.8262 4.58363 34.141 4.89844 34.5293 4.89844Z" fill="#1F5AFF"/>
<path d="M34.5293 8.20117H44.1484C44.5367 8.20117 44.8515 7.88636 44.8515 7.49805C44.8515 7.10973 44.5367 6.79492 44.1484 6.79492H34.5293C34.141 6.79492 33.8262 7.10973 33.8262 7.49805C33.8262 7.88636 34.141 8.20117 34.5293 8.20117Z" fill="#1F5AFF"/>
<path d="M37.0728 41.634C37.0728 38.8254 36.1351 36.07 34.4272 33.8437L34.5575 31.4432C34.6462 29.8092 33.3494 28.4267 31.7002 28.4267H24.0035C23.6494 28.1765 23.4346 27.7701 23.4346 27.3312V25.368C24.6279 24.5962 25.4658 23.7161 26.0813 22.6687H27.4419C29.0161 22.6687 30.2967 21.3881 30.2967 19.8139V14.5628C30.2967 13.6771 29.7844 12.8942 29.0182 12.5238V8.83852C29.0182 7.16077 27.6532 5.79577 25.9755 5.79577H25.8967C25.8487 5.79577 25.8097 5.75667 25.8097 5.70877C25.8097 4.03102 24.4447 2.66602 22.7669 2.66602H15.3204C11.6242 2.66602 8.61694 5.67323 8.61694 9.36952V12.5237C7.85081 12.8941 7.33838 13.677 7.33838 14.5627V17.2333C7.33838 18.4828 8.35491 19.4993 9.60441 19.4993H10.5121C10.747 21.4864 11.6792 23.3012 13.1392 24.5629C13.4818 24.859 13.8361 25.1235 14.2005 25.3597V27.3311C14.2005 27.7687 13.9849 28.1752 13.6292 28.4266H5.93522C4.29872 28.4266 2.98856 29.7963 3.078 31.4431L3.20831 33.8436C1.50028 36.07 0.562594 38.8254 0.562594 41.634V44.2824C0.213 44.6742 0 45.1903 0 45.7554C0 46.9768 0.993656 47.9703 2.21503 47.9703H35.4203C36.6417 47.9703 37.6354 46.9767 37.6354 45.7554C37.6354 45.1903 37.4224 44.6742 37.0728 44.2825V41.634ZM35.6665 41.634V43.5543C35.5856 43.5453 35.5036 43.5404 35.4203 43.5404H33.9008L34.2977 36.2288C35.1877 37.8817 35.6665 39.7439 35.6665 41.634ZM28.8184 14.2195C28.8646 14.3252 28.8907 14.4413 28.8907 14.5629V17.2335C28.8907 17.7075 28.505 18.0932 28.0309 18.0932H27.1947V15.4426L27.628 15.2917C28.1641 15.105 28.5857 14.7112 28.8184 14.2195ZM24.124 22.3662H22.3595C22.075 22.3662 21.8436 22.1348 21.8436 21.8504C21.8436 21.5659 22.075 21.3345 22.3595 21.3345H24.124C24.4085 21.3345 24.6398 21.5659 24.6398 21.8504C24.6398 22.1348 24.4085 22.3662 24.124 22.3662ZM27.4421 21.2625H26.7314C26.9294 20.698 27.0661 20.1066 27.1382 19.4995H28.0309C28.3351 19.4995 28.6253 19.4388 28.8907 19.3296V19.8141C28.8907 20.6128 28.2408 21.2625 27.4421 21.2625ZM10.0234 9.3697C10.0234 6.44883 12.3997 4.07245 15.3206 4.07245H22.7671C23.6694 4.07245 24.4036 4.80661 24.4036 5.70895C24.4036 6.53236 25.0735 7.2022 25.8968 7.2022H25.9757C26.878 7.2022 27.6121 7.93636 27.6121 8.8387V13.3352C27.6121 13.6182 27.4326 13.8707 27.1654 13.9638L25.6878 14.4784C25.6282 14.499 25.5668 14.4561 25.5668 14.3921L25.5696 11.598C25.5781 9.5588 23.6687 7.78036 20.9934 8.63967C19.6479 9.07205 17.9828 9.07055 16.6418 8.63967C13.9943 7.7888 12.0572 9.53564 12.0657 11.5958L12.069 14.3923C12.069 14.4568 12.0062 14.4992 11.9481 14.4784L10.47 13.9637C10.2028 13.8707 10.0233 13.6181 10.0233 13.3351V9.3697H10.0234ZM8.74481 17.2335V14.5628C8.74481 14.4413 8.77087 14.3251 8.81709 14.2194C9.04988 14.7112 9.47147 15.105 10.0077 15.2917L10.4409 15.4425V18.0931H9.60469C9.1305 18.0932 8.74481 17.7075 8.74481 17.2335ZM11.86 18.6873C11.8367 17.763 11.851 16.7818 11.8471 15.8835C11.8904 15.8872 11.9338 15.8894 11.9772 15.8894C12.8132 15.8894 13.4767 15.2099 13.4752 14.3902L13.472 11.592C13.4672 10.4503 14.4913 9.42548 16.2116 9.97842C17.8421 10.5023 19.7985 10.5007 21.4237 9.97842C23.0627 9.45183 24.1684 10.3789 24.1633 11.5943L24.1606 14.3904C24.1595 15.2619 24.9044 15.9601 25.7883 15.8835V18.7442C25.7678 19.3519 25.6678 19.945 25.4981 20.509C25.1489 20.1512 24.6623 19.9282 24.124 19.9282H22.3595C21.2996 19.9282 20.4373 20.7904 20.4373 21.8503C20.4373 22.9101 21.2996 23.7723 22.3595 23.7723H23.2528C21.9541 24.786 20.4773 25.3146 18.8545 25.3415C15.3048 25.3131 11.9616 22.6906 11.86 18.6873ZM15.607 27.3313V26.101C16.6234 26.5218 17.7076 26.7399 18.8527 26.748H18.8576C18.8613 26.748 18.8649 26.748 18.8686 26.7479C19.9834 26.7305 21.0388 26.5145 22.0286 26.1067V27.3312C22.0286 27.7151 22.109 28.0867 22.2569 28.4267H15.3779C15.5263 28.0866 15.607 27.7149 15.607 27.3313ZM3.33769 36.2288L3.44869 38.2745C3.46978 38.6624 3.80194 38.9606 4.18884 38.9385C4.57659 38.9175 4.87388 38.5861 4.85287 38.1984L4.48209 31.3671C4.437 30.5361 5.09644 29.8331 5.93522 29.8331H31.7002C32.5328 29.8331 33.1987 30.5298 33.1534 31.3671L32.4926 43.5405H21.4669C21.6012 42.7373 21.9629 41.9819 22.5201 41.3629L22.5402 41.3404C24.6685 38.9594 24.0315 35.236 21.2805 33.6728C20.5746 33.2717 19.678 33.7719 19.678 34.6034V37.7937C19.678 37.9399 19.5591 38.0588 19.4128 38.0588H18.2226C18.0763 38.0588 17.9573 37.9398 17.9573 37.7937V34.6034C17.9573 33.7735 17.0622 33.2709 16.3549 33.6728C13.596 35.2403 12.9719 38.9651 15.0973 41.3428L15.1153 41.3629C15.6725 41.9818 16.0342 42.7372 16.1685 43.5404H5.14284L5.03006 41.4616C5.00906 41.0739 4.67766 40.7762 4.28991 40.7976C3.90216 40.8186 3.60487 41.15 3.62587 41.5378L3.73453 43.5404H2.21503C2.13178 43.5404 2.04975 43.5454 1.96884 43.5543V41.634C1.96884 39.744 2.44781 37.8817 3.33769 36.2288ZM17.5893 43.5404C17.4454 42.3883 16.9515 41.3007 16.1606 40.4221L16.1437 40.4031C14.7851 38.8834 14.9671 36.5334 16.5512 35.2373V37.7936C16.5512 38.7152 17.301 39.465 18.2227 39.465H19.4129C20.3346 39.465 21.0844 38.7151 21.0844 37.7936V35.2373C22.658 36.5248 22.8595 38.8731 21.4901 40.4051L21.4749 40.422C20.684 41.3007 20.1901 42.3883 20.0462 43.5404H17.5893ZM35.4203 46.5642H2.21503C1.76906 46.5642 1.40625 46.2014 1.40625 45.7555C1.40625 45.3096 1.76906 44.9467 2.21503 44.9467H35.4203C35.8663 44.9467 36.2291 45.3095 36.2291 45.7555C36.2291 46.2015 35.8663 46.5642 35.4203 46.5642Z" fill="#1F5AFF"/>
<path d="M47.2973 4.8412C47.6856 4.8412 48.0004 4.52639 48.0004 4.13808V2.7772C48.0004 1.26202 46.7677 0.0292969 45.2524 0.0292969H33.4267C31.9114 0.0292969 30.6787 1.26202 30.6787 2.7772V8.6917C30.6787 10.207 31.9114 11.4397 33.4267 11.4397C33.6975 11.4397 33.9178 11.66 33.9178 11.9308V15.5884C33.9178 16.1167 34.2598 16.5663 34.7689 16.7072C35.2811 16.849 35.8042 16.6358 36.0743 16.1854L38.7771 11.6782C38.8653 11.5311 39.0268 11.4397 39.1983 11.4397H45.2525C46.7678 11.4397 48.0005 10.207 48.0005 8.6917V7.42533C48.0005 7.03702 47.6857 6.7222 47.2974 6.7222C46.9091 6.7222 46.5943 7.03702 46.5943 7.42533V8.6917C46.5943 9.43158 45.9924 10.0335 45.2525 10.0335H39.1982C38.5354 10.0335 37.9119 10.3866 37.571 10.955L35.3239 14.7022V11.9308C35.3239 10.8846 34.4728 10.0335 33.4266 10.0335C32.6867 10.0335 32.0849 9.43158 32.0849 8.6917V2.7772C32.0849 2.03742 32.6867 1.43555 33.4266 1.43555H45.2524C45.9923 1.43555 46.5942 2.03742 46.5942 2.7772V4.13808C46.5942 4.52639 46.909 4.8412 47.2973 4.8412Z" fill="#1F5AFF"/>
</g>
<defs>
<clipPath id="clip0_1042_2932">
<rect width="48" height="48" fill="white"/>
</clipPath>
</defs>
</svg>

<svg width="48" height="48" viewBox="0 0 48 48" fill="none" xmlns="http://www.w3.org/2000/svg"><g clip-path="url(#clip0_1042_2932)" fill="#1F5AFF"><path d="M44.149 3.492h-6.135a.703.703 0 000 1.406h6.135a.703.703 0 000-1.406zM34.53 4.898h.747a.703.703 0 100-1.406h-.748a.703.703 0 000 1.406zm0 3.303h9.618a.703.703 0 000-1.406H34.53a.703.703 0 000 1.406zm2.543 33.433a12.84 12.84 0 00-2.646-7.79l.13-2.4a2.86 2.86 0 00-2.857-3.017h-7.697a1.341 1.341 0 01-.568-1.096v-1.963c1.193-.772 2.03-1.652 2.646-2.7h1.36a2.858 2.858 0 002.856-2.854v-5.251c0-.886-.513-1.669-1.279-2.04V8.84a3.046 3.046 0 00-3.043-3.043h-.078a.087.087 0 01-.087-.087 3.046 3.046 0 00-3.043-3.043H15.32A6.711 6.711 0 008.617 9.37v3.154a2.265 2.265 0 00-1.279 2.039v2.67A2.269 2.269 0 009.604 19.5h.908c.235 1.987 1.167 3.802 2.627 5.064.343.296.697.56 1.062.797v1.971c0 .438-.216.844-.572 1.096H5.935a2.86 2.86 0 00-2.857 3.016l.13 2.4a12.842 12.842 0 00-2.645 7.791v2.648c-.35.392-.563.908-.563 1.473 0 1.222.994 2.215 2.215 2.215H35.42a2.218 2.218 0 002.215-2.215 2.21 2.21 0 00-.562-1.473v-2.648zm-1.407 0v1.92a2.224 2.224 0 00-.246-.014H33.9l.398-7.311a11.425 11.425 0 011.368 5.405zm-6.848-27.415a.856.856 0 01.073.344v2.67a.86.86 0 01-.86.86h-.836v-2.65l.433-.151c.536-.187.958-.58 1.19-1.072zm-4.694 8.147H22.36a.516.516 0 010-1.032h1.764a.516.516 0 010 1.032zm3.318-1.104h-.71a8.275 8.275 0 00.406-1.762h.893c.304 0 .594-.061.86-.17v.484a1.45 1.45 0 01-1.449 1.448zM10.023 9.37a5.303 5.303 0 015.298-5.298h7.446a1.64 1.64 0 011.637 1.637c0 .823.67 1.493 1.493 1.493h.079c.902 0 1.636.734 1.636 1.637v4.496c0 .283-.18.536-.447.629l-1.477.514a.09.09 0 01-.121-.086l.003-2.794c.008-2.04-1.901-3.818-4.577-2.958-1.345.432-3.01.43-4.351 0-2.648-.851-4.585.896-4.576 2.956l.003 2.796a.09.09 0 01-.12.086l-1.479-.514a.666.666 0 01-.447-.629V9.37zm-1.278 7.864v-2.671c0-.122.026-.238.072-.344.233.492.654.886 1.19 1.073l.434.15v2.651h-.836a.86.86 0 01-.86-.86zm3.115 1.453c-.023-.924-.009-1.905-.013-2.804a1.497 1.497 0 001.628-1.493l-.003-2.798c-.005-1.142 1.02-2.167 2.74-1.614 1.63.524 3.587.523 5.212 0 1.639-.526 2.744.4 2.74 1.616l-.003 2.796a1.497 1.497 0 001.627 1.493v2.861a6.902 6.902 0 01-.29 1.765 1.915 1.915 0 00-1.374-.58H22.36c-1.06 0-1.923.861-1.923 1.921s.863 1.922 1.922 1.922h.894c-1.299 1.014-2.776 1.543-4.398 1.57-3.55-.029-6.893-2.651-6.995-6.655zm3.747 8.644v-1.23c1.016.42 2.1.639 3.246.647h.015a8.58 8.58 0 003.16-.641v1.224c0 .384.081.756.229 1.096h-6.88c.15-.34.23-.712.23-1.096zM3.337 36.23l.112 2.046a.703.703 0 101.404-.077l-.37-6.83a1.454 1.454 0 011.452-1.535H31.7c.833 0 1.499.697 1.453 1.534l-.66 12.174H21.467a4.318 4.318 0 011.053-2.178l.02-.023c2.129-2.38 1.492-6.104-1.26-7.667-.705-.401-1.602.099-1.602.93v3.19a.265.265 0 01-.265.266h-1.19a.266.266 0 01-.266-.265v-3.19c0-.83-.895-1.333-1.602-.931-2.759 1.567-3.383 5.292-1.258 7.67l.018.02a4.317 4.317 0 011.054 2.177H5.143l-.113-2.078a.703.703 0 10-1.404.076l.109 2.002h-1.52a2.25 2.25 0 00-.246.014v-1.92c0-1.89.479-3.752 1.369-5.405zm14.253 7.31a5.717 5.717 0 00-1.428-3.118l-.017-.019a3.586 3.586 0 01.407-5.166v2.557c0 .921.75 1.671 1.672 1.671h1.19c.922 0 1.671-.75 1.671-1.671v-2.557a3.587 3.587 0 01.406 5.168l-.015.017a5.718 5.718 0 00-1.429 3.118H17.59zm17.831 3.024H2.215a.81.81 0 010-1.617H35.42a.81.81 0 010 1.617z"/><path d="M47.297 4.841A.703.703 0 0048 4.138v-1.36a2.751 2.751 0 00-2.748-2.75H33.427a2.751 2.751 0 00-2.748 2.748v5.915a2.751 2.751 0 002.748 2.748c.27 0 .49.22.49.49v3.658c0 .529.343.978.852 1.12a1.15 1.15 0 001.305-.523l2.703-4.507a.494.494 0 01.421-.238h6.054A2.751 2.751 0 0048 8.692V7.425a.703.703 0 00-1.406 0v1.267c0 .74-.602 1.341-1.342 1.341h-6.054c-.663 0-1.286.354-1.627.922l-2.247 3.747v-2.771a1.9 1.9 0 00-1.897-1.897c-.74 0-1.342-.602-1.342-1.342V2.777c0-.74.602-1.341 1.342-1.341h11.825c.74 0 1.342.601 1.342 1.341v1.361c0 .388.315.703.703.703z"/></g><defs><clipPath id="clip0_1042_2932"><path fill="#fff" d="M0 0h48v48H0z"/></clipPath></defs></svg>
